X:1
T:The Girl With the Waterfall
M:4/4
L:1/4
K:A
 E| C E E E| A A A3/2 A/2| B B A B| c3| E| E d d3/2 d/2| d c2 F| B F F G|\
 E3| z| C E E3/2 E/2| A A A2| B B A B| c3| E/2E/2| E d d3/2 d/2| d e c F/2F/2|\
 E E/2E/2 G G| A3||
